X:398
T:Woodland Flowers
C:Felix Burns
M:6/8
L:1/8
K:G
DGB A2G|DGB A2G|E2C E2G|c6|
d2B c2A|B2G E2F|G2B AGE|D6|
DGB A2G|DGB A2G|E2C E2G|c6|
d2B c2A|B2G E2F|G2D BdB|G6||
BAG D2D|BAG D2D|cBA E2E|cBA E2E|
F2G F2E|D2c B2A|G2A BAG|D6|
BAG D2D|BAG D2D|cBA E2E|cBA E2E|
F2G F2E|D2c B2A|G2D BdB|G6||

